X: 65
T: The Gay Gordons
C: J.S.Skinner
M: 2/4
R: march
Z: John Chambers <jc:trillian.mit.edu>
L: 1/8
K: G
D \
|: "G"G>A BA/G/ | "C"c>d ed/c/ | "G"Bg     BA/G/    | "D7"BA AD \
|  "G"G>A BA/G/ | "C"c>d ed/c/ | "G"Bg "D7"d/B/c/A/ | "G"BG G :|
d \
| "G"g>e dc/B/ | "C"c>d ed/c/ | "G"Bg "Em"BA/G/    | "Am"BA "D7"Ad \
| "G"g>e dc/B/ | "C"c>d ed/c/ | "G"Bg "D7"d/B/c/A/ | "G"BG G |]
d \
| "G"g>e dc/B/ | "C"c>d ed/c/ | "G"Bg "Em"BA/G/    | "A7"BA "D7"Ad \
| "G"G>A BA/G/ | "C"c>d ed/c/ | "G"Bg "D7"d/B/c/A/ | "G"BG G |]

%%sep 1 1 500

